X:1
T:An euch bin ich gebunden
T:Horatio Vecchi
T:Source : Canzonette mi 3 Stimmen/ H.Vecchi und G.Capilupi---Nürnberg---P.Kauffmann---1606. Editor : André Vierendeels (22/02/17).
T:Notes  : Original clefs : C1, C1, F4 Editorial accidentals above the staff Text Middle German by Valentin Hauszmann German Contrafactum of "Hor ch'è lungi" 1597
T:An euch bin ich gebunden
T:©
T:©
C:Horatio Vecchi
Z:©
%%score [ 1 2 3 ]
L:1/8
Q:1/4=100
M:4/4
K:F
V:1 treble nm="Soprano 1" snm="S 1"
V:2 treble nm="Soprano 2" snm="S 2"
V:3 bass nm="Bass" snm="B"
V:1
"^1)" G6 A2 | B4 B2 c2 | A4 A2 d2 | c8 | =B4 c4- |"^b" c4 B4 | A4 G4- | G4 ^F4 |[M:2/4] G4 :: %9
w: An euch|bin ich ge-|bun- den durch|Lieb,|hab ich|be- fun-|||den,|
w: Euch hab|ich offt ge-|be- ten, dasz|ihr|mich solt|_ er-|ret- *||ten,|
[M:4/4] d2 c2 B4 | c2 B2 A4 | B4 d4- | d4 c2 c2 | c2 c2 c2 c2 | c2 d2 _e4- | e2 dc B2 c2 | %16
w: die mein Hertz|hat ge- fan-|gen, ach|_ dasz ich|doch köndt hülff ein-|mal er- lan-||
w: und in dem|Bund der Lie-|be, mich|_ nicht so|lang, wie jetet ge-|schicht, be- tru-||
 d2 cB A2 G2 | A4 !fermata!G4 :| %18
w: |* gen.|
w: |* ben.|
V:2
"^2)""^1)" B6 A2 | G4 G2 G2 | ^F4 F2 B2 | A4 G4 | F4 G4 | c8- | c4 B4 | A8 |[M:2/4] G4 :: %9
w: An euch|bin ich ge-|bun- den durch|Lieb, hab|ich be-|fun-|||den,|
w: Ich sitz|odr bey euch|ste- he, nur|blotz ich|euch an|se-|||he,|
[M:4/4] B2 c2 d4 | _e3 d c4 | d4 B4- | B4 A2 A2 | A2 A2 A2 A2 |"^b" A2 =B2 c2 BA | G6 FE | %16
w: die mein Hertz|hat ge- fan-|gen, ach|_ dasz ich|doch köndt hülff ein-|mal er- lan- * *||
w: nichts mehr von|euch sonst ha-|be, dasz|_ ich mein|jun- ges Hertz da-|mit la- * * *||
 D2 E2 ^F2 G2- | G2 ^F2 !fermata!G4 :| %18
w: |* * gen.|
w: |* * be.|
V:3
"^1)""^4)""^3)" G,6 F,2 | _E,4 E,2 C,2 | D,4 D,2 B,,2 | F,4 _E,4 | D,4 C,4 | A,,8 | D,8- | D,8 | %8
w: An euch|bin ich ge-|bun- den durch|Lieb, hab|ich be-|fun-|||
w: Wenn ich|dann Durst em-|pfin- de, und|wolt gern|les- chn|ge-|schwin-||
[M:2/4] G,,4 ::[M:4/4] G,2 A,2 B,4 | _E,2 E,2 F,4 | B,,4 B,4- | B,4 F,2 F,2 | F,2 F,2 F,2 F,2 | %14
w: den,|die mein Hertz|hat ge- fan-|gen, ach|_ dasz ich|doch köndt hülff ein-|
w: de,|mein Hertz will|mir ver- sin-|cken, dasz|_ ich das|Was- ser hab, und|
 F,2 D,2 C,4- | C,2 B,,A,, G,,2 A,,2 | B,,2 C,2 D,4- | D,4 !fermata!G,,4 :| %18
w: mal er lan-|||* gen.|
w: darff nicht trin-|||* cken.|

